X:1
T:Tears Will Never Stain the Streets of That City
T:Tears Will Never Stain the Streets of That City
T:Dottie Rambo, 1985
C:Dottie rAmbo 1985
Z:All Rights Reserved
L:1/8
Q:1/4=85
M:3/4
K:Ab
V:1 treble nm="Voice"
%%MIDI program 54
V:1
"^With Feeling" z4 z"Ab" E | E3 E EE |"Db" F4- FF/F/ |"Ab" FE E4- | E4 z A/A/ | A2 A3 A | A2 c3 A | %7
w: If|I could count the|tears _ that have|fall _ en|_ It would|seem like an|o cean to|
"Eb7" E6- | E2 z E EE |"Ab" E4- EE/E/ |"Db" FE D3 F/F/ |"Ab" FE E4- | E6 | A3 A AE |"Eb7" c2 c3 B | %15
w: me|_ And if my|heart _ were a|win _ dow you could|look _ through|_|Oh the pain and|scars you would|
"Ab" A6- | A4 z"^Bridge" e | e4- ee | fe e3 c |"Db" B2 A3 A |"Ab" FE- E4 | A2 A3 B | c4 e2 | %23
w: see|_ But|tears _ will|nev er stain the|streets of that|ci ty _|No reaths of|death on|
 e2 e3 c |"Eb7" B6- | B4 z2 |"Ab" e2 e3 e | f2 e3 c |"Db" BA A3 F |"Ab" F2 E4- | E2 z2 EE | %31
w: my man sion|door|_|Tear drops aren't|wel come be|yond the gates of|glo ry|_ 'Cause the|
 A3 B cd |"Eb7" c B3 Bc |"Ab" A6- | A4 z E | E3 E EE |"Db" F4- FF/F/ |"Ab" FE E4- | E4 z A/A/ | %39
w: heart will nev er|break _ an y|more|_ I've|nev er met one|man _ with out|sor _ row|_ nev er|
 A2 A3 A | A2 c3 A |"Eb7" E6- | E2 z E EE |"Ab" E4- EE/E/ |"Db" FE D3 F/F/ |"Ab" FE E4- | E4 A2 | %47
w: looked in to|eyes with no|pain|_ But there's a|land _ where _|grief _ is a _|stran _ ger|_ And|
 A3 A AE |"Eb7" BB c3 B |"Ab" A6- | A4 z"^Bridge" e | e4- ee | fe e3 c |"Db" B2 A3 A |"Ab" FE- E4 | %55
w: joy _ is the|on ly song they|sing|_ and|tears _ will|nev er stain the|streets of that|ci ty _|
 A2 A3 B | c4 e2 | e2 e3 c |"Eb7" B6- | B4 z2 |"Ab" e2 e3 e | f2 e3 c |"Db" BA A3 F |"Ab" F2 E4- | %64
w: No reaths of|death on|my man sion|door|_|Tear drops aren't|wel come be|yond the gates of|glo ry|
 E2 z2 EE | A3 B cd |"Eb7" c B3 Bc |"Ab" A6- | A4 z E | E3 E EE |"Db" F4- FF/F/ |"Ab" FE E4- | %72
w: _ 'Cause the|heart will nev er|break _ an y|more|_ I|have ques tioned the|death _ of a|loved _ one|
 E4 z A/A/ | A2 A3 A | A2 c3 A |"Eb7" E6- | E2 z E EE |"Ab" E4- EE/E/ |"Db" FE D3 F/F/ | %79
w: _ the _|greave seems so|fin al and|cold|_ But _ we'll|meet _ again _|where _ death has no|
"Ab" FE E4- | E6 | A3 A AE |"Eb7" c2 c3 B |"Ab" A6- | A4 z"^Bridge" e | e4- ee | fe e3 c | %87
w: vic _ tory|_|in a land where|we'll never grow|old|_ and|tears _ will|nev er stain the|
"Db" B2 A3 A |"Ab" FE- E4 | A2 A3 B | c4 e2 | e2 e3 c |"Eb7" B6- | B4 z2 |"Ab" e2 e3 e | f2 e3 c | %96
w: streets of that|ci ty _|No reaths of|death on|my man sion|door|_|Tear drops aren't|wel come be|
"Db" BA A3 F |"Ab" F2 E4- | E2 z2 EE | A3 B cd |"Eb7" c B3 Bc |"Ab" A6- | A4 z2 |] %103
w: yond the gates of|glo ry|_ 'Cause the|heart will nev er|break _ an y|more|_|

